common/resources/fonts/svg/lte.svg

<?xml version="1.0" encoding="UTF-8" standalone="no"?>
<svg width="1024px" height="1024px" viewBox="0 0 1024 1024" version="1.1" xmlns="http://www.w3.org/2000/svg" xmlns:xlink="http://www.w3.org/1999/xlink">
    <!-- Generator: Sketch 40.1 (33804) - http://www.bohemiancoding.com/sketch -->
    <title>lte</title>
    <desc>Created with Sketch.</desc>
    <defs></defs>
    <g id="Page-1" stroke="none" stroke-width="1" fill="none" fill-rule="evenodd">
        <g id="lte" fill="#221F20">
            <path d="M216.16802,865.229781 L807.827993,865.229781 L807.827993,803.821277 L216.16802,803.821277 L216.16802,865.229781 Z M765.733374,148.234612 L236.045691,403.576656 L236.045691,461.269946 L765.733374,716.61199 L765.733374,642.89437 L320.234461,433.49137 L320.234461,431.355232 L765.733374,221.952232 L765.733374,148.234612 Z" id="Combined-Shape"></path>
        </g>
    </g>
</svg>

<svg width="1024" height="1024" viewBox="0 0 1024 1024">
    <path d="M216.168 865.23h591.66v-61.41h-591.66v61.409zm549.565-716.995L236.046 403.577v57.693l529.687 255.342v-73.718L320.234 433.491v-2.136l445.5-209.403v-73.717z" fill="#221F20" fill-rule="evenodd"/>
</svg>
